X:1
T:Hoffen auff Gottes Gütigkeit
T:André Vierendeels
T:Melody by Georg Vogler (1625) (Bass voice)
T:Source : Catechismus---Würzburg---J.Volmari---1652. Editor : André Vierendeels (09/010/17).
T:Notes : Original clef:  F3 (notated as C5), other voices supplied editorially Original note values have been halved Text Middle German
T:Hoffen auff Gottes Gütigkeit
T:©
T:©
C:André Vierendeels
Z:©
%%score [ 1 2 3 ]
L:1/8
Q:1/4=120
M:2/2
K:C
V:1 treble nm="Soprano" snm="S"
V:2 treble-8 nm="Tenor" snm="T"
V:3 bass nm="Bass" snm="B"
V:1
"^1)" E4 A4 | B4 G2 A2 | A2 B2 c4 | z4 A4 | A4 B4 | G2 c2 A2 B2 | c4 z4 | e4 A2 A2 | B4 c4 | %9
w: Hof- fen|auff Got- tes|Gü- tig- keit,|an-|bet- ten|sein Barm- her- tzig-|keit,|lehrt uns das|an- der|
w: Hoff- nung|be- denck in-|son- der- heit|Got-|tes Wol-|that und Gü- tig-|keit,|die al- ler-|Höch- ste|
 F2 E2 E4 | E4 z4 | c4 G2 F2 | G2 c2 A4 | A4 ^G4 | z4 B4 | G2 A2 G2 E2 | F4 A4 | B4 z4 | c4 B2 c2 | %19
w: Haupt- * stück|fern,|beym Glau- ben|musz die Hoff-|nung seyn,|Hoff-|nung stärck trots und|Auf- fen-|heit|den from- men|
w: Se- * lig-|keit,|wel- che sein|Kin- dern Gott|be- reyt,|von|E- wig- keit in|dem Ge-|bett|der Hoff- nung,|
 B4 A4 | A2 A2 A4 | ^G8 |] %22
w: mehr dann|Gut _ und|Gelt.|
w: Speisz und|Nah- * rung|steht.|
V:2
"^2)""^1)" B4 c4 | B4 B2 c2 | e2 d2 c4 | z4 c4 | c4 B4 | B2 e2 c2 d2 | c4 z4 | g4 c2 d2 | B4 e4 | %9
w: Hof- fen|auff Got- tes|Gü- tig- keit,|an-|bet- ten|sein Barm- her- tzig-|keit,|lehrt uns das|an- der|
w: Job der|Ge- recht gantz|frew- dig sagt,|ich|hoff wann|Gott zu Todt schon|schlagt.|Der Gott- losz|wan- cket|
 A2 E2 ^G4 | A4 z4 | e4 e2 A2 | B2 e2 c4 | A4 B4 | z4 e4 | e2 f2 e2 c2 | A4 c4 | B4 z4 | e4 d2 f2 | %19
w: Haupt- * stück|fern,|beym Glau- ben|musz die Hoff-|nung seyn,|Hoff-|nung stärck trots und|Auf- fen-|heit,|den from- men|
w: hin _ und|her,|Ohn Ruh als|auff dem wil-|den Meer,|die-|weil ge- richt sein|Zu- ber-|sicht,|auff Zeit- lichs,|
 g4 e4 | f2 c2 d2 A2 | B8 |] %22
w: mehr dann|Gut _ und _|Gelt.|
w: und auffs|E- * wig _|nicht|
V:3
"^3)""^1)""^4)" E,4 F,4 | G,4 E,2 A,2 | A,2 G,2 A,4 | z4 A,4 | F,4 G,4 | E,2 A,2 A,2 G,2 | A,4 z4 | %7
w: Hof- fen|auff Got- tes|Gü- tig- keit,|an-|bet- ten|sein Bar- her- tzig-|keit,|
w: Hoff was|das Vat- ter|un- ser lehrt,|und|hätt das-|sel- big un- be-|schwert,|
 E,4 F,2 D,2 | E,4 C,4 | D,2 C,2 B,,4 | A,,4 z4 | A,,4 C,2 D,2 | E,2 C,2 F,4 | F,4 E,4 | z4 E,4 | %15
w: lehrt uns das|an- der|Haupt- * stück|fern,|beym Glau- ben|musz die Hoff-|nung seyn,|Hoff-|
w: bet- ten soll|seyn dein|täg- * lich|Brodt:|die Nutz- bar-|keit, die trin-|gend Noth|er-|
 E,2 D,2 C,2 C,2 | F,4 F,4 | E,4 z4 | A,4 G,2 F,2 | E,4 A,4 | F,2 A,2 F,4 | E,8 |] %22
w: nung stärck tröst und|Auf- fen-|heit,|den from- men|mehr dann|Gut _ und|Gelt.|
w: for- derts, und die|Gött- lich'|Ehr,|durch bet- ten|Gnad und|Tu- * gend|mehr.|

